Yaru++/devices/symbolic/pda-symbolic.svg

<svg height="16" width="16" xmlns="http://www.w3.org/2000/svg"><g fill="#808080"><path d="m4.183 0c-1.798 0-3.153 1.338-3.153 3v10c0 1.662 1.354 3 3.152 3h7.572c1.799 0 3.246-1.338 3.246-3v-6.59l-1 1.59-.02248 5.01907c-.0056 1.259668-1.397382 1.950632-1.997375 1.953516l-7.9350707.03814c-.5989971.00288-2.0106607-.713136-2.0106607-2.048867v-9.9427887c0-1.0190703.9655864-1.9882729 1.9544458-1.9916567l8.0111406-.0274136 1-1s-.816388.0076979-1.245 0z"/><path d="m14.04 1.031s-2.519 3.506-4.04 5.969l-1.406 1.167.038 1.574-.764 1.245h.696l.74-.584 1.675-.462.595-1.481 4.185-6.365z"/></g></svg>

<?xml version="1.0" encoding="UTF-8" standalone="no"?>
<svg
   xmlns:dc="http://purl.org/dc/elements/1.1/"
   xmlns:cc="http://creativecommons.org/ns#"
   xmlns:rdf="http://www.w3.org/1999/02/22-rdf-syntax-ns#"
   xmlns:svg="http://www.w3.org/2000/svg"
   xmlns="http://www.w3.org/2000/svg"
   xmlns:sodipodi="http://sodipodi.sourceforge.net/DTD/sodipodi-0.dtd"
   xmlns:inkscape="http://www.inkscape.org/namespaces/inkscape"
   width="16"
   height="16"
   version="1.1"
   id="svg8"
   sodipodi:docname="pda-symbolic.svg"
   inkscape:version="0.92.4 (5da689c313, 2019-01-14)">
  <metadata
     id="metadata14">
    <rdf:RDF>
      <cc:Work
         rdf:about="">
        <dc:format>image/svg+xml</dc:format>
        <dc:type
           rdf:resource="http://purl.org/dc/dcmitype/StillImage" />
      </cc:Work>
    </rdf:RDF>
  </metadata>
  <defs
     id="defs12" />
  <sodipodi:namedview
     pagecolor="#ffffff"
     bordercolor="#666666"
     borderopacity="1"
     objecttolerance="10"
     gridtolerance="10"
     guidetolerance="10"
     inkscape:pageopacity="0"
     inkscape:pageshadow="2"
     inkscape:window-width="1920"
     inkscape:window-height="1016"
     id="namedview10"
     showgrid="true"
     inkscape:zoom="52.4375"
     inkscape:cx="8.3945"
     inkscape:cy="8"
     inkscape:window-x="0"
     inkscape:window-y="27"
     inkscape:window-maximized="1"
     inkscape:current-layer="g6">
    <inkscape:grid
       type="xygrid"
       id="grid821" />
  </sodipodi:namedview>
  <g
     fill="#808080"
     id="g6">
    <path
       d="M 4.183,0 C 2.385,0 1.03,1.338 1.03,3 v 10 c 0,1.662 1.354,3 3.152,3 h 7.572 C 13.553,16 15,14.662 15,13 V 6.41 L 14,8 13.97752,13.01907 c -0.0056,1.259668 -1.397382,1.950632 -1.997375,1.953516 l -7.9350707,0.03814 C 3.4460772,15.013606 2.0344136,14.29759 2.0344136,12.961859 V 3.0190703 C 2.0344136,2 3,1.0307974 3.9888594,1.0274136 L 12,1 13,0 c 0,0 -0.816388,0.0076979 -1.245,0 z"
       id="path2"
       inkscape:connector-curvature="0"
       sodipodi:nodetypes="ssssssccsssssscccs" />
    <path
       d="M14.04 1.031S11.521 4.537 10 7L8.594 8.167l.038 1.574-.764 1.245h.696l.74-.584 1.675-.462.595-1.481 4.185-6.365z"
       font-weight="400"
       overflow="visible"
       style="text-decoration-line:none;text-indent:0;text-transform:none"
       id="path4"
       font-family="Sans" />
  </g>
</svg>
